app/dist/common/images/eletromidia-on-nm.svg

<svg fill="none" height="18" width="18" xmlns="http://www.w3.org/2000/svg"><path d="m0 0h18v18h-18z" fill="#ff3800"/><path clip-rule="evenodd" d="m7 14h-1v-9.355c0-.356.32-.645.715-.645h5.285v1h-5v2l5-.5v1l-5 .5v1h4.285c.395 0 .715.144.715.5v4.5h-1v-4h-1l-.6 4h-1l.6-4h-2z" fill="#f0f3fa" fill-rule="evenodd"/></svg>

<!-- by TradingView --><svg width="18" height="18" fill="none" xmlns="http://www.w3.org/2000/svg"><path fill="#FF3800" d="M0 0h18v18H0z"/><path fill-rule="evenodd" clip-rule="evenodd" d="M7 14H6V4.645C6 4.289 6.32 4 6.715 4H12v1H7v2l5-.5v1L7 8v1h4.285c.395 0 .715.144.715.5V14h-1v-4h-1l-.6 4h-1l.6-4H7v4Z" fill="#F0F3FA"/></svg>
